X: 16
T:Munster Rake (#196), The
M:9/8
L:1/8
S:O'Farrell's Pocket Companion 1804-10
K:G
D/2E/2|G/2A/2BG AGE EDE|G/2A/2BG AGE c2 e|dBG AGE EDE|
G/2A/2BG AGE G2:||e|dBG GAG e/2f/2ge|dBG GAG A2 e|
dBG GAG e/2f/2ge|dBG AGE G2 e|dBG GAG e/2f/2ge|
dBG GBG A2 e|dBG gBB AGE|G/2A/2BG AGE G2||

